X: 1
T: Road To The Glen, The
M: 4/4
L: 1/8
R: reel
K: Dmin
|: FdcB AGFD | G2 dG eGdG | FEFG Acde | fedc A=BcA |
d3 e f2 ag | fedc AFDE |1 F3 G AGFG | Addc d2 (3CDE :|2 F3 G AFDE | FDEC D2 de||
f2 ag fedf | ecgc acgc | f2 ag fede | fdec Adde |
f3 g (3agf (3gfe | fedc AFDE | F3 G AGFG |1 Addc d2 de :|2 Addc d2 (3CDE ||
